X:18
T:TOUR
Z: Yves BELOTTEAU
M:4/4
L:1/4
Q:1/4=75
K:G 
|GA/2B/2B3/2G/2 AAB/2B/2B|GA/2 B<BG/2 AAB2|GA/2B/2B3/2G/2 AAB/2B/2B|GA/2
 B<BG/2 AAB2|
GA/2B/2Ad BB/2A/2GG|GA/2B/2Ad BB/2A/2G2|GA/2B/2Ad BB/2A/2GG|GA/2B/2Ad BB
/2A/2G2|
